X: 7251
T: Clara's Vale
R: waltz
M: 3/4
K: Eminor
g3a/g/ fe|f6|e3f/e/ dc|d6|G6|B6|E4E2|E6:|
|:f4B2|g6|b3ag2|f6|b3 b ag|f4gf|e4e2|e6:|

